X:65
T:Gleanntan Frolics, The
R:slide
H:See also jig#385 "Westering Home"
Z:id:hn-slide-65
M:6/8
L:1/8
K:D
d2B AFA | d3 d2A | def g2e | fed BAB |
d2B AFA | d2c d2e | f2b afd |1 efe d2B :|2 ~e3 def||
|: ~g3 bge | fef a2f | e2f gfe | fed BAB |
d2B AFA | d2c d2e | f2b afd |1 efe def :|2 ~e3 d2B ||
P:variations
|: ABA AFA | d2A d2A | def gfe | fed B2A |
d2B AFA | d2A d2e | f2b afd |1 ~e3 d2B :|2 efe def||
|: g2a bag | fdf agf | e2f a2f | efd B2A |
d2B AFA | d2A d2e | f2b afd |1 ~e3 def :|2 efe d2B ||
<end>
<start>
